public/icons/quote.svg

<svg width="26" height="20" viewBox="0 0 26 20" fill="none" xmlns="http://www.w3.org/2000/svg">
    <path d="M9.43006 1.00963C4.31041 5.51967 3.49474 6.66489 3.39061 9.14423C4.69222 8.97304 6.02853 8.56572 7.32435 8.67788C10.2862 8.92581 12.149 11.4583 12.0159 14.7168C11.8944 17.6743 9.79451 19.8408 6.91362 19.9884C2.65014 20.2127 0.301469 17.9931 0.0295781 13.6484C-0.242313 9.37446 1.73613 6.19264 4.63437 3.46536C5.86655 2.30243 7.2665 1.3284 8.59703 0.277635C9.02511 -0.0529441 9.34328 -0.0883633 9.54576 0.17728C9.73666 0.431118 9.66724 0.803019 9.43006 1.00963Z" fill="#E5E5E5"/>
    <path d="M22.9256 1.00958C17.806 5.51961 16.9903 6.65893 16.8862 9.14417C18.1878 8.97298 19.5241 8.56566 20.8199 8.67782C23.7818 8.92575 25.6446 11.4582 25.5115 14.7168C25.39 17.6743 23.2901 19.8407 20.4092 19.9883C16.1457 20.2126 13.7971 17.993 13.5252 13.6483C13.2591 9.37439 15.2375 6.19848 18.1357 3.47121C19.3679 2.30828 20.7679 1.33425 22.0984 0.283485C22.5207 -0.0529969 22.8447 -0.0825129 23.0471 0.183131C23.2322 0.431064 23.1628 0.802965 22.9256 1.00958Z" fill="#E5E5E5"/>
</svg>

<svg xmlns="http://www.w3.org/2000/svg" width="26" height="20" fill="#e5e5e5"><path d="M9.43 1.01C4.31 5.52 3.495 6.665 3.391 9.144c1.302-.171 2.638-.579 3.934-.466 2.962.248 4.825 2.78 4.692 6.039-.122 2.957-2.221 5.124-5.102 5.272-4.263.224-6.612-1.995-6.884-6.34-.272-4.274 1.707-7.456 4.605-10.183C5.867 2.302 7.267 1.328 8.597.278c.428-.331.746-.366.949-.1.191.254.121.626-.116.832zm13.496 0c-5.12 4.51-5.935 5.649-6.039 8.135 1.302-.171 2.638-.579 3.934-.466 2.962.248 4.825 2.78 4.692 6.039-.122 2.957-2.221 5.124-5.102 5.272-4.263.224-6.612-1.995-6.884-6.34-.266-4.274 1.712-7.45 4.611-10.177C19.37 2.31 20.77 1.336 22.101.285c.422-.336.746-.366.949-.1.185.248.116.62-.122.826z"/></svg>
